icons-dark/actions/22/folder-new.svg

<svg xmlns="http://www.w3.org/2000/svg" viewBox="0 0 22 22">
  <defs id="defs3051">
    <style type="text/css" id="current-color-scheme">
      .ColorScheme-Text {
        color:#f2f2f2
      }
      </style>
  </defs>
 <path 
    style="fill:currentColor;fill-opacity:1;stroke:none" 
	d="m3 3v1 15h1 9v-1h-9v-8h3v-.009766l.007813.009766 2-2h8.992188v5h1v-8h-6.992188l-2-2-.007812.009766v-.009766h-6-1m13 11v2h-2v1h2v2h1v-2h2v-1h-2v-2h-1"
    class="ColorScheme-Text"
    />  
</svg>

<?xml version="1.0" encoding="UTF-8" standalone="no"?>
<!-- Created with Inkscape (http://www.inkscape.org/) -->

<svg
   xmlns:dc="http://purl.org/dc/elements/1.1/"
   xmlns:cc="http://creativecommons.org/ns#"
   xmlns:rdf="http://www.w3.org/1999/02/22-rdf-syntax-ns#"
   xmlns:svg="http://www.w3.org/2000/svg"
   xmlns="http://www.w3.org/2000/svg"
   xmlns:sodipodi="http://sodipodi.sourceforge.net/DTD/sodipodi-0.dtd"
   xmlns:inkscape="http://www.inkscape.org/namespaces/inkscape"
   width="22"
   height="22"
   id="svg2"
   version="1.1"
   inkscape:version="0.48+devel r"
   viewBox="0 0 22 22"
   sodipodi:docname="folder-new.svg">
  <defs
     id="defs4" />
  <sodipodi:namedview
     id="base"
     pagecolor="#ffffff"
     bordercolor="#666666"
     borderopacity="1.0"
     inkscape:pageopacity="0.0"
     inkscape:pageshadow="2"
     inkscape:zoom="22.837499"
     inkscape:cx="5.3948914"
     inkscape:cy="11.66718"
     inkscape:document-units="px"
     inkscape:current-layer="layer1"
     showgrid="true"
     inkscape:showpageshadow="false"
     borderlayer="true"
     inkscape:window-width="1366"
     inkscape:window-height="668"
     inkscape:window-x="-2"
     inkscape:window-y="23"
     inkscape:window-maximized="1"
     units="px">
    <sodipodi:guide
       position="2,20.000017"
       orientation="18,0"
       id="guide4085" />
    <sodipodi:guide
       position="2,2.0000174"
       orientation="0,18"
       id="guide4087" />
    <sodipodi:guide
       position="20,2.0000174"
       orientation="-18,0"
       id="guide4089" />
    <sodipodi:guide
       position="20,20.000017"
       orientation="0,-18"
       id="guide4091" />
    <sodipodi:guide
       position="3,19.000017"
       orientation="16,0"
       id="guide4093" />
    <sodipodi:guide
       position="3,3.0000174"
       orientation="0,16"
       id="guide4095" />
    <sodipodi:guide
       position="19,3.0000174"
       orientation="-16,0"
       id="guide4097" />
    <sodipodi:guide
       position="19,19.000017"
       orientation="0,-16"
       id="guide4099" />
    <inkscape:grid
       type="xygrid"
       id="grid4101" />
    <sodipodi:guide
       position="3,19.000017"
       orientation="16,0"
       id="guide4123" />
    <sodipodi:guide
       position="3,3.0000174"
       orientation="0,2.000001"
       id="guide4125" />
    <sodipodi:guide
       position="4,19.000017"
       orientation="-16,0"
       id="guide4127" />
    <sodipodi:guide
       position="5.000001,19.000017"
       orientation="0,-2.000001"
       id="guide4129" />
    <sodipodi:guide
       position="18,19.000017"
       orientation="16,0"
       id="guide4131" />
    <sodipodi:guide
       position="17,3.0000174"
       orientation="0,2"
       id="guide4133" />
    <sodipodi:guide
       position="19,3.0000174"
       orientation="-16,0"
       id="guide4135" />
    <sodipodi:guide
       position="19,19.000017"
       orientation="0,-2"
       id="guide4137" />
  </sodipodi:namedview>
  <metadata
     id="metadata7">
    <rdf:RDF>
      <cc:Work
         rdf:about="">
        <dc:format>image/svg+xml</dc:format>
        <dc:type
           rdf:resource="http://purl.org/dc/dcmitype/StillImage" />
        <dc:title />
      </cc:Work>
    </rdf:RDF>
  </metadata>
  <g
     inkscape:label="Capa 1"
     inkscape:groupmode="layer"
     id="layer1"
     transform="translate(0,-1030.3622)">
    <path
       style="fill:#f2f2f2;fill-opacity:1;stroke:none"
       d="M 3 3 L 3 4 L 3 19 L 4 19 L 13 19 L 13 18 L 4 18 L 4 10 L 7 10 L 7 9.9902344 L 7.0078125 10 L 9.0078125 8 L 18 8 L 18 13 L 19 13 L 19 5 L 12.007812 5 L 10.007812 3 L 10 3.0097656 L 10 3 L 4 3 L 3 3 z M 16 14 L 16 16 L 14 16 L 14 17 L 16 17 L 16 19 L 17 19 L 17 17 L 19 17 L 19 16 L 17 16 L 17 14 L 16 14 z "
       transform="translate(0,1030.3622)"
       id="rect4127" />
  </g>
</svg>
